src/assets/bitcoin/coin/logo.svg

<svg width="36" height="36" viewBox="0 0 36 36" fill="none" xmlns="http://www.w3.org/2000/svg">
<g clip-path="url(#clip0_2529_10607)">
<path d="M18.001 36C27.9421 36 36.001 27.9411 36.001 18C36.001 8.05887 27.9421 0 18.001 0C8.05985 0 0.000976562 8.05887 0.000976562 18C0.000976562 27.9411 8.05985 36 18.001 36Z" fill="#F7931A"/>
<path d="M26.0886 15.7725C26.4419 13.4145 24.6452 12.1466 22.1905 11.3006L22.987 8.10562L21.043 7.62187L20.2667 10.7325C19.756 10.6042 19.2317 10.485 18.7086 10.3657L19.4905 7.23488L17.5465 6.75L16.75 9.94387C16.327 9.84712 15.9107 9.75263 15.508 9.65138L15.5102 9.64125L12.8282 8.97187L12.3107 11.0486C12.3107 11.0486 13.7541 11.3794 13.7237 11.3996C14.5112 11.5965 14.653 12.1174 14.6294 12.5314L13.7226 16.1707C13.7766 16.1842 13.8464 16.2045 13.9251 16.2349L13.7192 16.1842L12.448 21.2827C12.3512 21.5212 12.1071 21.8801 11.5559 21.744C11.5761 21.7721 10.1429 21.3919 10.1429 21.3919L9.17761 23.6171L11.7089 24.2482C12.1791 24.3664 12.6404 24.4901 13.0937 24.606L12.2894 27.837L14.2322 28.3207L15.0287 25.1257C15.5597 25.2686 16.075 25.4014 16.579 25.5274L15.7847 28.7089L17.7287 29.1926L18.5331 25.9684C21.8496 26.5961 24.3426 26.343 25.3922 23.3437C26.2382 20.9295 25.3506 19.5356 23.6057 18.6277C24.877 18.3352 25.8332 17.4994 26.0886 15.7725ZM21.6449 22.0027C21.0452 24.4181 16.9784 23.112 15.6599 22.7846L16.7286 18.504C18.0471 18.8336 22.2737 19.485 21.6449 22.0027ZM22.2467 15.7376C21.6989 17.9347 18.3149 16.8176 17.218 16.5442L18.1855 12.663C19.2824 12.9364 22.8182 13.446 22.2467 15.7376Z" fill="white"/>
</g>
<defs>
<clipPath id="clip0_2529_10607">
<rect width="36" height="36" fill="white" transform="translate(0.000976562)"/>
</clipPath>
</defs>
</svg>

<?xml version="1.0"?><svg width="36" height="36" viewBox="0 0 36 36" xmlns="http://www.w3.org/2000/svg" fill="none"><g clip-path="url(#a)"><path d="m18 36c9.9 0 18-8.1 18-18s-8.1-18-18-18c-9.9 0-18 8.1-18 18s8.1 18 18 18z" fill="#F7931A"></path><path d="m26.1 15.8c0.3-2.4-1.5-3.7-3.9-4.5l0.8-3.2-2-0.5-0.7 3.1c-0.5-0.1-1.1-0.2-1.6-0.3l0.8-3.2-2-0.4-0.8 3.1c-0.4-0.1-0.8-0.1-1.2-0.2l0-0.1-2.7-0.6-0.5 2.1s1.5 0.3 1.4 0.3c0.8 0.2 1 0.7 0.9 1.1l-0.9 3.7c0.1 0 0.1 0 0.2 0l-0.2 0-1.3 5.1c-0.1 0.2-0.3 0.6-0.8 0.4 0 0.1-1.5-0.3-1.5-0.3l-0.9 2.2 2.5 0.6c0.5 0.2 0.9 0.3 1.4 0.4l-0.8 3.2 1.9 0.5 0.8-3.2c0.6 0.2 1.1 0.3 1.6 0.4l-0.8 3.2 1.9 0.5 0.8-3.2c3.3 0.6 5.8 0.3 6.9-2.7 0.8-2.4-0.1-3.8-1.8-4.7 1.3-0.3 2.2-1.1 2.5-2.8z m-4.5 6.2c-0.6 2.4-4.6 1.1-5.9 0.8l1-4.3c1.3 0.3 5.6 1 4.9 3.5z m0.6-6.3c-0.5 2.2-3.9 1.1-5 0.8l1-3.8c1.1 0.2 4.6 0.7 4 3z" fill="#fff"></path></g><defs><clipPath id="a"><path fill="#fff" d="m0 0h36v36h-36z"></path></clipPath></defs></svg>
